public/images/logos/tensorflow.svg

<svg width="32" height="32" xmlns:xlink="http://www.w3.org/1999/xlink" xmlns="http://www.w3.org/2000/svg">
  <g style="fill:#000" transform="translate(1.4 -2.92) scale(.60837)">
    <defs>
      <path id="a" d="M47.5 17.6 25 4.8v52.6l9-5.2V37.4l6.8 3.9-.1-10.1-6.7-3.9v-5.9l13.5 7.9z"/>
    </defs>
    <clipPath id="b">
      <use xlink:href="#a" overflow="visible"/>
    </clipPath>
    <g clip-path="url(#b)" style="fill:#000">
      <path d="M-1.6 4.6h55.2v52.9H-1.6Z" fill="url(#c)" style="fill:#000"/>
    </g>
  </g>
  <g style="fill:#000" transform="translate(1.4 -2.92) scale(.60837)">
    <defs>
      <path id="c" d="M.5 17.6 23 4.8v52.6l-9-5.2V21.4L.5 29.3Z"/>
    </defs>
    <clipPath id="d">
      <use xlink:href="#c" overflow="visible"/>
    </clipPath>
    <g clip-path="url(#d)" style="fill:#000">
      <path d="M-1.9 4.6h55.2v52.9H-1.9Z" fill="url(#f)" style="fill:#000"/>
    </g>
  </g>
</svg>

<?xml version="1.0" encoding="UTF-8" standalone="no"?>
<svg viewBox="0 0 32 32" version="1.1" id="svg8" sodipodi:docname="tensorflow.svg" width="32" height="32" inkscape:version="1.4-beta2 (9aaf4f34, 2024-07-30)" xmlns:inkscape="http://www.inkscape.org/namespaces/inkscape" xmlns:sodipodi="http://sodipodi.sourceforge.net/DTD/sodipodi-0.dtd" xmlns:xlink="http://www.w3.org/1999/xlink" xmlns="http://www.w3.org/2000/svg" xmlns:svg="http://www.w3.org/2000/svg">
  <sodipodi:namedview id="namedview1" pagecolor="#ffffff" bordercolor="#000000" borderopacity="0.25" inkscape:showpageshadow="2" inkscape:pageopacity="0.0" inkscape:pagecheckerboard="0" inkscape:deskcolor="#d1d1d1" inkscape:zoom="2.5388665" inkscape:cx="55.536595" inkscape:cy="50.219261" inkscape:window-width="1440" inkscape:window-height="790" inkscape:window-x="0" inkscape:window-y="0" inkscape:window-maximized="1" inkscape:current-layer="svg8" />
  <defs id="defs8" />
  <g id="g8" transform="matrix(0.57713563,0,0,0.57713563,1.4148543,-2.7702509)">
    <g id="g4" style="fill:#000000" transform="matrix(1.054111,0,0,1.054111,-0.02705552,-0.25973296)">
      <g id="g3" style="fill:#000000">
        <defs id="defs1">
          <path id="SVGID_1_" d="M 47.5,17.6 25,4.8 v 52.6 l 9,-5.2 V 37.4 L 40.8,41.3 40.7,31.2 34,27.3 v -5.9 l 13.5,7.9 z" />
        </defs>
        <clipPath id="SVGID_2_">
          <use xlink:href="#SVGID_1_" overflow="visible" id="use1" />
        </clipPath>
        <g clip-path="url(#SVGID_2_)" id="g2" style="fill:#000000">
          <linearGradient id="SVGID_3_" gradientUnits="userSpaceOnUse" x1="-1.6" y1="335.04999" x2="53.599998" y2="335.04999" gradientTransform="translate(0,-304)">
            <stop offset="0" stop-color="#ff6f00" id="stop1" />
            <stop offset="1" stop-color="#ffa800" id="stop2" />
          </linearGradient>
          <path d="M -1.6,4.6 H 53.6 V 57.5 H -1.6 Z" fill="url(#SVGID_3_)" id="path2" style="fill:#000000" />
        </g>
      </g>
    </g>
    <g id="g7" style="fill:#000000" transform="matrix(1.054111,0,0,1.054111,-0.02705552,-0.25973296)">
      <g id="g6" style="fill:#000000">
        <defs id="defs4">
          <path id="SVGID_4_" d="M 0.5,17.6 23,4.8 V 57.4 L 14,52.2 V 21.4 L 0.5,29.3 Z" />
        </defs>
        <clipPath id="SVGID_5_">
          <use xlink:href="#SVGID_4_" overflow="visible" id="use4" />
        </clipPath>
        <g clip-path="url(#SVGID_5_)" id="g5" style="fill:#000000">
          <linearGradient id="SVGID_6_" gradientUnits="userSpaceOnUse" x1="-1.9" y1="335.04999" x2="53.299999" y2="335.04999" gradientTransform="translate(0,-304)">
            <stop offset="0" stop-color="#ff6f00" id="stop4" />
            <stop offset="1" stop-color="#ffa800" id="stop5" />
          </linearGradient>
          <path d="M -1.9,4.6 H 53.3 V 57.5 H -1.9 Z" fill="url(#SVGID_6_)" id="path5" style="fill:#000000" />
        </g>
      </g>
    </g>
  </g>
</svg>
